src/assets/outline/MobileProgramming.svg

<svg width="24" height="24" viewBox="0 0 24 24"  xmlns="http://www.w3.org/2000/svg">
<path d="M13.4999 5.75024H10.4799C9.25993 5.75024 8.24993 4.76022 8.22993 3.54022L8.19993 2.01025C8.18993 1.60025 8.51991 1.25023 8.92991 1.24023C8.93991 1.24023 8.93993 1.24023 8.94993 1.24023C9.35993 1.24023 9.68993 1.57021 9.69993 1.97021L9.72993 3.50024C9.73993 3.90024 10.0799 4.24023 10.4799 4.24023H13.4999C13.9199 4.24023 14.2499 3.90023 14.2499 3.49023V2.00024C14.2499 1.59024 14.5899 1.25024 14.9999 1.25024C15.4099 1.25024 15.7499 1.59024 15.7499 2.00024V3.50024C15.7499 4.74024 14.7399 5.75024 13.4999 5.75024Z" />
<path d="M16.9999 21.7495C16.8099 21.7495 16.6199 21.6795 16.4699 21.5295L14.4699 19.5295C14.1799 19.2395 14.1799 18.7595 14.4699 18.4695L16.4699 16.4695C16.7599 16.1795 17.2399 16.1795 17.5299 16.4695C17.8199 16.7595 17.8199 17.2395 17.5299 17.5295L16.0599 18.9995L17.5299 20.4695C17.8199 20.7595 17.8199 21.2395 17.5299 21.5295C17.3799 21.6795 17.1899 21.7495 16.9999 21.7495Z" />
<path d="M19.9999 21.7495C19.8099 21.7495 19.6199 21.6795 19.4699 21.5295C19.1799 21.2395 19.1799 20.7595 19.4699 20.4695L20.9399 18.9995L19.4699 17.5295C19.1799 17.2395 19.1799 16.7595 19.4699 16.4695C19.7599 16.1795 20.2399 16.1795 20.5299 16.4695L22.5299 18.4695C22.8199 18.7595 22.8199 19.2395 22.5299 19.5295L20.5299 21.5295C20.3799 21.6795 20.1899 21.7495 19.9999 21.7495Z" />
<path d="M13 22.75H8C4.35 22.75 2.25 20.65 2.25 17V7C2.25 3.35 4.35 1.25 8 1.25H16C19.65 1.25 21.75 3.35 21.75 7V14C21.75 14.41 21.41 14.75 21 14.75C20.59 14.75 20.25 14.41 20.25 14V7C20.25 4.14 18.86 2.75 16 2.75H8C5.14 2.75 3.75 4.14 3.75 7V17C3.75 19.86 5.14 21.25 8 21.25H13C13.41 21.25 13.75 21.59 13.75 22C13.75 22.41 13.41 22.75 13 22.75Z" />
</svg>

<?xml version="1.0" encoding="UTF-8"?>
<svg width="24" height="24" viewBox="0 0 24 24" xmlns="http://www.w3.org/2000/svg">
 <path d="m13.5 5.7502h-3.02c-1.22 0-2.23-0.99002-2.25-2.21l-0.03-1.53c-0.01-0.41 0.31998-0.76002 0.72998-0.77002h0.02002c0.41 0 0.74 0.32998 0.75 0.72998l0.03 1.53c0.01 0.4 0.34997 0.73999 0.74997 0.73999h3.02c0.42 0 0.75-0.34 0.75-0.75v-1.49c0-0.41 0.34-0.75 0.75-0.75s0.75 0.34 0.75 0.75v1.5c0 1.24-1.01 2.25-2.25 2.25z"/>
 <path d="m17 21.75c-0.19 0-0.38-0.07-0.53-0.22l-2-2c-0.29-0.29-0.29-0.77 0-1.06l2-2c0.29-0.29 0.77-0.29 1.06 0s0.29 0.77 0 1.06l-1.47 1.47 1.47 1.47c0.29 0.29 0.29 0.77 0 1.06-0.15 0.15-0.34 0.22-0.53 0.22z"/>
 <path d="m20 21.75c-0.19 0-0.38-0.07-0.53-0.22-0.29-0.29-0.29-0.77 0-1.06l1.47-1.47-1.47-1.47c-0.29-0.29-0.29-0.77 0-1.06s0.77-0.29 1.06 0l2 2c0.29 0.29 0.29 0.77 0 1.06l-2 2c-0.15 0.15-0.34 0.22-0.53 0.22z"/>
 <path d="m13 22.75h-5c-3.65 0-5.75-2.1-5.75-5.75v-10c0-3.65 2.1-5.75 5.75-5.75h8c3.65 0 5.75 2.1 5.75 5.75v7c0 0.41-0.34 0.75-0.75 0.75s-0.75-0.34-0.75-0.75v-7c0-2.86-1.39-4.25-4.25-4.25h-8c-2.86 0-4.25 1.39-4.25 4.25v10c0 2.86 1.39 4.25 4.25 4.25h5c0.41 0 0.75 0.34 0.75 0.75s-0.34 0.75-0.75 0.75z"/>
</svg>
